X:757
T:Old hag you have killed me
T:O hag you have killed me
R:Jig
S:My arrangement from various sources
Z:Transcription, arrangement, chords:Mike Long
M:6/8
L:1/8
K:G
G|\
"D"F2D "C"c2A|"D"ded cAG|~A3 ABG|~A3 A2G|\
"D"F2D "C"c2A|"D"ded cAF|"G"~G3 "C"GcA|"G"~G3 G2:|
|:e|\
"D"f2f "G"gfg|"D"afd cAG|~A3 ABG|~A3 A2e|\
"D"fef "G"gfg|"D"afd cAF|"C"~G3 GcA|"G"~G3 G2:|
